X: 853
T: Sail Away Ladies
B: jims roots
M:4/4
L:1/8
Q: 1/4=100
K:G
V:1 
ef |: "G"g2 ga g2d2 |"Em"[e6e6] ef | "C"gabg dgeg | "G"d6 eg |
ed (3BdB AGED | "Am"DA2 BA3 G | "D"ABAG EDEF |[1 "G"G6 ef:| [2 "G"G6 (3EFE||
|: "G"DEGA BGAG | "Am"EA2 BA3 G | "D"ABAG EDEF | [1 "G"GDB,D G2G2:| [2 "G"G6|]
% abcbook-tune_id 6298c287d5fcbb7b4c040048


% abcbook-boost 0
% abcbook-tablature 
% abcbook-transpose 
% abcbook-lastupdated 1654178439958
% abcbook-soundfonts 
% abcbook-repeats 1


